icons/Design/brush-fill.svg

<svg viewBox="0 0 24 24" xmlns="http://www.w3.org/2000/svg"><path d="M13.2886 6.21289L18.2278 2.3713C18.6259 2.06168 19.1922 2.09694 19.5488 2.45355L22.543 5.44774C22.8997 5.80435 22.9349 6.3707 22.6253 6.76879L18.7847 11.7067C19.0778 12.895 19.0836 14.1719 18.7444 15.4377C17.8463 18.7896 14.8142 20.9984 11.5016 20.9984C8 20.9984 3.5 19.4966 1 17.9966C4.97978 14.9966 4.04722 13.1864 4.5 11.4966C5.55843 7.54646 9.34224 5.23923 13.2886 6.21289ZM16.7015 8.09149C16.7673 8.15494 16.8319 8.21952 16.8952 8.2852L18.0297 9.41972L20.5046 6.23774L18.7589 4.49198L15.5769 6.96685L16.7015 8.09149Z"/></svg>

<svg xmlns="http://www.w3.org/2000/svg" viewBox="0 0 24 24">
    <g>
        <path fill="none" d="M0 0h24v24H0z"/>
        <path d="M13.289 6.216l4.939-3.841a1 1 0 0 1 1.32.082l2.995 2.994a1 1 0 0 1 .082 1.321l-3.84 4.938a7.505 7.505 0 0 1-7.283 9.292C8 21.002 3.5 19.5 1 18c3.98-3 3.047-4.81 3.5-6.5 1.058-3.95 4.842-6.257 8.789-5.284zm3.413 1.879c.065.063.13.128.193.194l1.135 1.134 2.475-3.182-1.746-1.746-3.182 2.475 1.125 1.125z"/>
    </g>
</svg>
